X:1
T:Title
%%score { ( 1 4 ) | ( 2 3 ) }
L:1/8
M:4/4
K:E
V:1 treble nm="Grand Piano"
V:4 treble 
V:2 bass 
V:3 bass 
V:1
 z4 z2[Q:1/4=100] EF | G2 G2 GFG[FA] | [GB]2 [Ac]2 [GB]2 EF | G3 c B2 G2 | [DF]6 EF | %5
 G2 G2 GF[B,EG][B,FA] | [EGB]2 [EAc]2 [EGB]2 [G,E][A,EF] | [B,EG]3 [^A,E] [B,DF]2 [=A,DF]2 | %8
[M:3/4] [G,E]6 |[M:1/4] [EGB][EGB] |[M:4/4] [EAc]3 [EAc] [EAc][Ece][EBd][EAc] | [EGB]2 G4 EF | %12
 G3 c B2 G2 | [DF]6 z2 | G3 G G[DF]GA | B2 G4 EF | G3 E [DF]2 [DF]2 |[M:3/4] E6 |] %18
V:2
 z4 z2 [E,G,][E,A,E] | [E,B,E]2 [E,B,E]2 ED[E,B,E][E,B,] | [E,E]2 [E,E]2 [E,E]2 [E,G,][E,A,E] | %3
 [E,B,E]3 [E,A,E] [E,G,E]2 [E,B,E]2 | [B,,B,]6 [E,G,][E,A,E] | [E,B,E]2 [E,B,E]2 EDE,E, | %6
 E,2 E,2 E,2 E,E, | E,3 C, B,,2 B,,2 |[M:3/4] E,6 |[M:1/4] E,E, |[M:4/4] A,3 A, A,A,A,A, | %11
 E,2 [E,B,E]4 [E,G,][E,A,E] | [E,B,E]3 [E,A,E] [E,G,E]2 [E,B,E]2 | [B,,B,]4 A,2 [G,B,][F,B,D] | %14
 [E,B,E]3 [E,B,E] [E,B,E][B,,B,][E,B,E][F,B,F] | [G,B,E]2 [E,B,E]4 [E,G,][E,A,D] | %16
 [E,B,E]3 [C,^A,] [B,,B,]2 [B,,=A,]2 |[M:3/4] [E,G,]6 |] %18
V:3
 x8 | z4 [E,B,]2 z2 | x8 | x8 | x8 | z4 [E,B,]2 z2 | x8 | x8 |[M:3/4] x6 |[M:1/4] x2 |[M:4/4] x8 | %11
 x8 | x8 | x8 | x8 | x8 | x8 |[M:3/4] x6 |] %18
V:4
 x8 | x8 | x8 | x8 | x8 | x8 | x8 | x8 |[M:3/4] x6 |[M:1/4] x2 |[M:4/4] x8 | x8 | x8 | z4 B,2 EF | %14
 x8 | x8 | x8 |[M:3/4] x6 |] %18

